flaticon/hand-gestures/tap-20.svg

<svg xmlns="http://www.w3.org/2000/svg" width="32" height="32" viewBox="0 0 24 24">
    <path d="M 6.066406 9.039062 C 6.222656 8.921875 6.304688 8.679688 6.183594 8.480469 C 5.824219 7.839844 5.625 7.121094 5.625 6.398438 C 5.625 4.199219 7.425781 2.398438 9.625 2.398438 C 9.703125 2.398438 9.746094 2.398438 9.824219 2.398438 C 9.945312 2.398438 10.066406 2.359375 10.144531 2.28125 C 10.90625 1.320312 12.023438 0.800781 13.222656 0.800781 C 14.425781 0.800781 15.542969 1.320312 16.34375 2.238281 C 16.425781 2.359375 16.542969 2.398438 16.664062 2.398438 C 16.746094 2.398438 16.785156 2.398438 16.863281 2.398438 C 19.066406 2.398438 20.863281 4.199219 20.863281 6.398438 C 20.863281 7 20.703125 7.601562 20.464844 8.121094 C 20.382812 8.238281 20.34375 8.359375 20.265625 8.480469 C 20.144531 8.679688 20.183594 8.921875 20.382812 9.039062 C 20.425781 9.078125 20.503906 9.078125 20.585938 9.078125 C 20.746094 9.078125 20.863281 9 20.90625 8.839844 C 20.984375 8.71875 21.066406 8.601562 21.144531 8.441406 C 21.464844 7.800781 21.625 7.121094 21.625 6.398438 C 21.625 3.761719 19.464844 1.601562 16.785156 1.601562 C 15.90625 0.601562 14.585938 0 13.222656 0 C 11.863281 0 10.585938 0.601562 9.664062 1.601562 C 9.625 1.601562 9.625 1.601562 9.625 1.601562 C 6.984375 1.601562 4.824219 3.761719 4.824219 6.398438 C 4.824219 7.28125 5.066406 8.121094 5.503906 8.921875 C 5.625 9.078125 5.863281 9.160156 6.066406 9.039062 Z M 6.066406 9.039062"/>
    <path d="M 18.90625 7.640625 C 18.785156 7.839844 18.824219 8.078125 19.023438 8.199219 C 19.066406 8.238281 19.144531 8.238281 19.222656 8.238281 C 19.34375 8.238281 19.503906 8.160156 19.542969 8.039062 C 19.625 7.960938 19.664062 7.839844 19.703125 7.761719 C 19.90625 7.359375 20.023438 6.878906 20.023438 6.398438 C 20.023438 4.640625 18.585938 3.199219 16.824219 3.199219 C 16.542969 3.199219 16.304688 3.238281 16.066406 3.28125 C 15.503906 2.28125 14.382812 1.601562 13.222656 1.601562 C 12.066406 1.601562 10.945312 2.238281 10.382812 3.28125 C 10.144531 3.238281 9.90625 3.199219 9.625 3.199219 C 7.863281 3.199219 6.425781 4.640625 6.425781 6.398438 C 6.425781 7 6.585938 7.558594 6.90625 8.078125 C 7.023438 8.238281 7.265625 8.320312 7.464844 8.199219 C 7.625 8.078125 7.703125 7.839844 7.585938 7.640625 C 7.34375 7.28125 7.222656 6.839844 7.222656 6.398438 C 7.222656 5.078125 8.304688 4 9.625 4 C 9.863281 4 10.066406 4.039062 10.34375 4.121094 C 10.382812 4.121094 10.425781 4.160156 10.464844 4.160156 C 10.585938 4.199219 10.746094 4.199219 10.863281 4.121094 C 10.945312 4.039062 10.984375 3.960938 11.023438 3.878906 C 11.023438 3.839844 11.066406 3.761719 11.066406 3.761719 C 11.464844 2.921875 12.304688 2.398438 13.222656 2.398438 C 14.144531 2.398438 14.984375 2.921875 15.464844 3.71875 C 15.503906 3.800781 15.503906 3.839844 15.542969 3.921875 C 15.625 4.121094 15.824219 4.199219 16.023438 4.121094 C 16.066406 4.121094 16.144531 4.082031 16.183594 4.082031 C 16.382812 4.039062 16.625 4 16.863281 4 C 18.183594 4 19.265625 5.078125 19.265625 6.398438 C 19.265625 6.761719 19.183594 7.121094 19.023438 7.441406 C 18.984375 7.519531 18.945312 7.558594 18.90625 7.640625 Z M 18.90625 7.640625"/>
    <path d="M 19.585938 9.601562 C 19.144531 9.601562 18.703125 9.761719 18.382812 10 L 18.382812 6.800781 C 18.382812 5.679688 17.503906 4.800781 16.382812 4.800781 C 15.945312 4.800781 15.503906 4.960938 15.183594 5.199219 C 15.183594 4.078125 14.304688 3.199219 13.183594 3.199219 C 12.0625 3.199219 11.183594 4.078125 11.183594 5.199219 C 10.863281 4.960938 10.425781 4.800781 9.984375 4.800781 C 8.863281 4.800781 7.984375 5.679688 7.984375 6.800781 L 7.984375 11.878906 C 7.105469 10.359375 5.0625 9.601562 3.503906 10.160156 C 3.304688 10.199219 3.144531 10.320312 2.945312 10.441406 C 2.34375 10.839844 2.382812 11.359375 2.382812 11.519531 C 2.34375 11.71875 2.425781 11.839844 2.90625 12.28125 C 3.625 13 5.105469 14.480469 6.0625 16.199219 C 6.144531 16.28125 7.222656 18.039062 8.425781 19.359375 L 8.425781 20.398438 C 8.425781 22.480469 10.105469 24 12.425781 24 L 16.425781 24 C 18.0625 24 19.90625 23.039062 20.304688 21.28125 C 20.425781 20.800781 20.542969 20.441406 20.703125 20.28125 C 21.105469 19.800781 21.585938 18.679688 21.585938 17.199219 L 21.585938 11.601562 C 21.585938 10.480469 20.703125 9.601562 19.585938 9.601562 Z M 20.863281 17.238281 C 20.863281 18.496094 20.453125 19.34375 20.203125 19.6875 C 20.183594 19.695312 20.164062 19.707031 20.144531 19.71875 L 19.984375 19.839844 C 19.585938 20.160156 19.464844 20.238281 18.703125 20.441406 C 18.503906 20.480469 18.382812 20.71875 18.425781 20.921875 C 18.503906 21.078125 18.664062 21.199219 18.824219 21.199219 C 18.863281 21.199219 18.90625 21.199219 18.945312 21.199219 C 19.226562 21.121094 19.441406 21.054688 19.613281 20.984375 C 19.601562 21.03125 19.59375 21.074219 19.585938 21.121094 C 19.265625 22.480469 17.746094 23.238281 16.464844 23.238281 L 12.464844 23.238281 C 10.585938 23.238281 9.265625 22.078125 9.265625 20.441406 L 9.265625 20.039062 C 9.34375 20.09375 9.421875 20.148438 9.503906 20.199219 C 9.746094 20.398438 9.945312 20.519531 10.183594 20.71875 C 10.265625 20.761719 10.34375 20.800781 10.425781 20.800781 C 10.542969 20.800781 10.664062 20.761719 10.703125 20.640625 C 10.863281 20.480469 10.824219 20.238281 10.664062 20.078125 C 10.425781 19.839844 10.183594 19.679688 9.945312 19.519531 C 9.664062 19.320312 9.382812 19.121094 9.105469 18.878906 C 9.078125 18.859375 9.050781 18.84375 9.023438 18.832031 C 7.867188 17.59375 6.785156 15.839844 6.785156 15.839844 C 5.785156 14.039062 4.265625 12.480469 3.503906 11.761719 C 3.382812 11.640625 3.304688 11.558594 3.222656 11.480469 C 3.222656 11.359375 3.265625 11.28125 3.503906 11.121094 C 3.664062 11.039062 3.785156 10.960938 3.90625 10.921875 C 4.945312 10.558594 6.664062 11.039062 7.425781 12.359375 L 8.042969 13.289062 C 8.046875 13.3125 8.054688 13.335938 8.0625 13.359375 L 8.464844 14.160156 C 8.542969 14.320312 8.664062 14.398438 8.824219 14.398438 C 8.90625 14.398438 8.945312 14.398438 8.984375 14.320312 C 9.144531 14.238281 9.222656 14 9.144531 13.800781 L 8.863281 13.234375 C 8.863281 13.222656 8.863281 13.210938 8.863281 13.199219 L 8.863281 6.800781 C 8.863281 6.121094 9.382812 5.601562 10.0625 5.601562 C 10.746094 5.601562 11.265625 6.121094 11.265625 6.800781 L 11.265625 13.601562 C 11.265625 13.839844 11.425781 14 11.664062 14 C 11.90625 14 12.0625 13.839844 12.0625 13.601562 L 12.0625 5.199219 C 12.0625 4.519531 12.585938 4 13.265625 4 C 13.945312 4 14.464844 4.519531 14.464844 5.199219 L 14.464844 13.199219 C 14.464844 13.441406 14.625 13.601562 14.863281 13.601562 C 15.105469 13.601562 15.265625 13.441406 15.265625 13.199219 L 15.265625 6.800781 C 15.265625 6.121094 15.785156 5.601562 16.464844 5.601562 C 17.144531 5.601562 17.664062 6.121094 17.664062 6.800781 L 17.664062 13.601562 C 17.664062 13.839844 17.824219 14 18.0625 14 C 18.304688 14 18.464844 13.839844 18.464844 13.601562 L 18.464844 11.601562 C 18.464844 10.921875 18.984375 10.398438 19.664062 10.398438 C 20.34375 10.398438 20.863281 10.921875 20.863281 11.601562 Z M 20.863281 17.238281"/>
</svg>

<svg xmlns="http://www.w3.org/2000/svg" width="32" height="32" viewBox="0 0 24 24">
    <path d="M6.066 9.04c.157-.118.239-.36.118-.56a4.274 4.274 0 0 1-.559-2.082c0-2.199 1.8-4 4-4h.2c.12 0 .241-.039.32-.117a3.882 3.882 0 0 1 3.078-1.48c1.203 0 2.32.52 3.12 1.437.083.121.2.16.321.16h.2c2.202 0 4 1.801 4 4 0 .602-.16 1.204-.4 1.723-.081.117-.12.238-.198.36-.121.199-.082.44.117.558.043.04.12.04.203.04.16 0 .277-.079.32-.24.078-.12.16-.237.239-.398.32-.64.48-1.32.48-2.043 0-2.636-2.16-4.796-4.84-4.796-.879-1-2.2-1.602-3.562-1.602-1.36 0-2.637.602-3.559 1.602h-.039c-2.64 0-4.8 2.16-4.8 4.796 0 .883.241 1.723.679 2.524.121.156.36.238.562.117zm0 0"/>
    <path d="M18.906 7.64c-.12.2-.082.438.117.56.043.038.122.038.2.038.12 0 .28-.078.32-.199.082-.078.121-.2.16-.277.203-.403.32-.883.32-1.364 0-1.757-1.437-3.199-3.199-3.199-.281 0-.52.04-.758.082-.562-1-1.683-1.68-2.843-1.68-1.157 0-2.278.637-2.84 1.68a4.094 4.094 0 0 0-.758-.082 3.208 3.208 0 0 0-3.2 3.2c0 .601.16 1.16.481 1.68.117.16.36.241.559.12a.432.432 0 0 0 .12-.558c-.241-.36-.362-.801-.362-1.243A2.407 2.407 0 0 1 9.625 4c.238 0 .441.04.719.121.039 0 .082.04.12.04.122.038.282.038.4-.04a.788.788 0 0 0 .16-.242.37.37 0 0 1 .042-.117 2.382 2.382 0 0 1 2.157-1.364c.922 0 1.761.524 2.242 1.32.039.083.039.122.078.204.082.2.281.277.48.2.043 0 .122-.04.16-.04.2-.043.442-.082.68-.082a2.407 2.407 0 0 1 2.403 2.398c0 .364-.082.723-.243 1.043-.039.079-.078.118-.117.2zm0 0"/>
    <path d="M19.586 9.602c-.441 0-.883.16-1.203.398V6.8c0-1.12-.88-2-2-2-.438 0-.88.16-1.2.4 0-1.122-.878-2-2-2-1.12 0-2 .878-2 2a2.062 2.062 0 0 0-1.199-.4c-1.12 0-2 .88-2 2v5.079c-.879-1.52-2.921-2.277-4.48-1.719-.2.04-.36.16-.559.281-.601.399-.562.918-.562 1.079-.04.199.043.32.523.761.719.719 2.2 2.2 3.156 3.918.083.082 1.16 1.84 2.364 3.16v1.04c0 2.081 1.68 3.601 4 3.601h4c1.637 0 3.48-.96 3.879-2.719.12-.48.238-.84.398-1 .402-.48.883-1.601.883-3.082v-5.597c0-1.122-.883-2-2-2zm1.277 7.636c0 1.258-.41 2.106-.66 2.45a.427.427 0 0 0-.058.03l-.16.122c-.4.32-.52.398-1.282.601-.2.04-.32.278-.277.48.078.157.238.278.398.278h.121c.282-.078.496-.144.668-.215-.011.047-.02.09-.027.137-.32 1.36-1.84 2.117-3.121 2.117h-4c-1.88 0-3.2-1.16-3.2-2.797v-.402c.079.055.157.11.239.16.242.2.441.32.68.52.082.043.16.082.242.082.117 0 .238-.04.277-.16.16-.16.121-.403-.039-.563-.238-.238-.48-.398-.719-.558-.28-.2-.562-.399-.84-.641a.44.44 0 0 0-.082-.047c-1.156-1.238-2.238-2.992-2.238-2.992-1-1.8-2.52-3.36-3.281-4.078-.121-.121-.2-.203-.281-.282 0-.12.043-.199.28-.359.161-.082.282-.16.403-.2 1.04-.362 2.758.118 3.52 1.438l.617.93c.004.024.012.047.02.07l.402.801c.078.16.2.238.36.238.081 0 .12 0 .16-.078.16-.082.238-.32.16-.52l-.282-.566V6.801c0-.68.52-1.2 1.2-1.2.683 0 1.203.52 1.203 1.2v6.8c0 .239.16.399.398.399.242 0 .399-.16.399-.398V5.199c0-.68.523-1.199 1.203-1.199s1.199.52 1.199 1.2v8c0 .241.16.402.398.402.242 0 .403-.16.403-.403V6.801c0-.68.52-1.2 1.199-1.2.68 0 1.2.52 1.2 1.2v6.8c0 .239.16.399.398.399.242 0 .402-.16.402-.398v-2c0-.68.52-1.204 1.2-1.204.679 0 1.198.524 1.198 1.204zm0 0"/>
</svg>
